Sources/FrostedUI/Resources/Icons.xcassets/bellSlash12.imageset/bell-slash-12.svg

<svg width="12" height="12" viewBox="0 0 12 12" fill="none" xmlns="http://www.w3.org/2000/svg" data-fui-icon="true">
  <path
    d="M10.2357 5.46551C10.2982 5.41492 10.3903 5.43756 10.4385 5.50195L10.7373 5.90137C11.4556 6.85898 11.3611 8.19946 10.5146 9.0459C10.0636 9.49667 9.45115 9.74998 8.81348 9.75H8.54902C8.38334 9.75 8.25106 9.88484 8.23205 10.0494C8.16619 10.6193 7.91212 11.0944 7.52832 11.4355C7.09302 11.8222 6.53356 12 5.99902 12C5.46456 11.9998 4.90485 11.8223 4.46973 11.4355C4.2687 11.2567 4.10515 11.0402 3.98453 10.7931C3.92795 10.6772 3.967 10.54 4.06726 10.4589L6.71434 8.31679C6.76774 8.27358 6.83436 8.25 6.90305 8.25H8.81348C9.05335 8.24998 9.2834 8.15387 9.45312 7.98438C9.77159 7.66591 9.80809 7.16216 9.53809 6.80176L9.23828 6.40234C9.20396 6.35652 9.2159 6.29064 9.2604 6.25463L10.2357 5.46551ZM10.7783 1.16699C11.1003 0.906524 11.5724 0.956431 11.833 1.27832C12.0935 1.60026 12.0436 2.07243 11.7217 2.33301L1.22168 10.833C0.899738 11.0935 0.427569 11.0436 0.166992 10.7217C-0.0934765 10.3997 -0.0435689 9.92757 0.27832 9.66699L10.7783 1.16699ZM5.54902 9.75C5.38334 9.75 5.24008 9.88836 5.29216 10.0457C5.33286 10.1686 5.39765 10.2537 5.46582 10.3145C5.59274 10.4273 5.78421 10.4998 5.99902 10.5C6.21392 10.5 6.40512 10.4272 6.53223 10.3145C6.60056 10.2537 6.66535 10.1687 6.70601 10.0457C6.75801 9.88836 6.61471 9.75 6.44902 9.75H5.54902ZM5.99902 0C7.00942 0 7.79844 0.277085 8.40502 0.709642C8.55663 0.817749 8.55217 1.03788 8.40747 1.15506L7.66021 1.76019C7.55799 1.84297 7.41471 1.84757 7.29836 1.78621C6.96097 1.60825 6.53746 1.5 5.99902 1.5C5.3593 1.50015 4.90063 1.65358 4.56348 1.86816C4.22259 2.08542 3.96272 2.39264 3.76562 2.75684C3.36041 3.50589 3.25595 4.42727 3.24023 5.01855C3.23821 5.09463 3.23251 5.17143 3.22357 5.24864C3.215 5.32261 3.17596 5.38923 3.1181 5.43609L1.28759 6.91853C1.0898 7.07872 0.812868 6.93414 0.883965 6.68976C0.965133 6.41075 1.0985 6.14266 1.28516 5.90039L1.56445 5.53809C1.66774 5.404 1.73403 5.21195 1.74023 4.97852C1.75814 4.30504 1.87346 3.10177 2.44629 2.04297C2.73818 1.50359 3.15883 0.985139 3.75781 0.603516C4.36072 0.219631 5.10482 0.000158441 5.99902 0Z"
    fill="currentColor"
  />
</svg>

<svg xmlns="http://www.w3.org/2000/svg" width="12" height="12" fill="none" data-fui-icon="true" viewBox="0 0 12 12"><path fill="currentColor" d="M10.236 5.466c.062-.051.154-.028.202.036l.3.4A2.406 2.406 0 0 1 8.812 9.75H8.55c-.166 0-.298.135-.317.3a2.15 2.15 0 0 1-.704 1.385A2.3 2.3 0 0 1 6 12a2.3 2.3 0 0 1-1.53-.565 2.1 2.1 0 0 1-.484-.642.276.276 0 0 1 .082-.334l2.647-2.142a.3.3 0 0 1 .189-.067h1.91a.906.906 0 0 0 .725-1.448l-.3-.4c-.034-.045-.022-.111.022-.147zm.542-4.299a.75.75 0 0 1 .944 1.166l-10.5 8.5a.75.75 0 0 1-.944-1.166zM5.55 9.75c-.166 0-.309.138-.257.296.04.123.106.208.174.269a.8.8 0 0 0 .533.185.8.8 0 0 0 .533-.185.6.6 0 0 0 .174-.27c.052-.157-.091-.295-.257-.295zM5.999 0c1.01 0 1.8.277 2.406.71.152.108.147.328.002.445l-.747.605a.33.33 0 0 1-.362.026C6.961 1.608 6.538 1.5 6 1.5c-.64 0-1.098.154-1.436.368-.34.217-.6.525-.797.889-.406.749-.51 1.67-.526 2.262a3 3 0 0 1-.016.23.28.28 0 0 1-.106.187L1.288 6.92c-.198.16-.475.015-.404-.23.081-.278.215-.546.401-.789l.28-.362a.95.95 0 0 0 .175-.56c.018-.673.133-1.876.706-2.935A3.85 3.85 0 0 1 3.758.603C4.36.22 5.105 0 5.999 0"/></svg>
